X:1
T:Lover's Waltz, The
C:Molly Mason & Jay Ungar
M:3/4
L:1/8
K:D
|Adf
|| "D"a3 afd | "G"B3 AGF |  "D"A6-    |     A3 Adf
|     a3 afd | "G"B3 AGF | "Em"A6-    | "A7"A3 ABd|
| "Em"e3 def | "G"ed3 BA |  "D"A6-    |     A3 ABd
| "G"e3 def  | "Em"ed3    BA | "A"a4-    ab  |    a4  dc |
| "D"d4  dc   | "Em"d4    dc | "D/F#"d3d dc  | "G"d2 g3f
| "D"d4  dc   | "Bm"d4    BA | "Em"B4- BA/B/ |"A7"A4 dc |
| "G"B3 cd2   |  "A"c2 d2 e2 | "Bm"f3  gfe   |    d4 dc 
| "G"B2 c2 d2 | "A7"e2 d3  c | "D (G)"d6-    | "D7"d3 ||
K:G
|z3 DGB
||"G"d3 dBG | "C"E3 DCB, | "G"D6- | D3 DGB
| d3 dBG | "C"E3 DCB, | "Am"D6- | "D7"D3 DEG|
| "Am"A3 GAB | "C"AG3 ED | "G"D6- | D3 DEG
| "C"A3 GAB | "Am"AG3 ED | "D"d4- de | d4 GF |
| "G"G4 GF | "Am"G4 GF | "G/B"G3G GF | "C"G2 c3B
| "G"G4 GF | "Em"G4 ED | "Am"E4- ED/2E/2 |"D7"D4 GF |
| "C"E3 FG2 | "D"F2 G2 A2 | "Em"B3 cBA | G4 GF 
| "C"E2 F2 G2 | "D7"A2 G3 F | "G (C)"G6- | "G"G3 ||
